biglinux-webapps/usr/share/icons/hicolor/scalable/apps/webapp-openstreetmap.svg

<?xml version="1.0" encoding="UTF-8" standalone="no"?>
<svg
   width="24"
   height="24"
   viewBox="0 0 24 24"
   fill="none"
   version="1.1"
   id="svg154"
   sodipodi:docname="app.svg"
   inkscape:version="1.2.2 (b0a8486541, 2022-12-01)"
   xml:space="preserve"
   inkscape:export-filename="../../../../ícones big/mailyahoo.pdf"
   inkscape:export-xdpi="96"
   inkscape:export-ydpi="96"
   xmlns:inkscape="http://www.inkscape.org/namespaces/inkscape"
   xmlns:sodipodi="http://sodipodi.sourceforge.net/DTD/sodipodi-0.dtd"
   xmlns:xlink="http://www.w3.org/1999/xlink"
   xmlns="http://www.w3.org/2000/svg"
   xmlns:svg="http://www.w3.org/2000/svg"
   xmlns:sketch="http://www.bohemiancoding.com/sketch/ns"><sodipodi:namedview
     id="namedview156"
     pagecolor="#ffffff"
     bordercolor="#000000"
     borderopacity="1"
     inkscape:showpageshadow="0"
     inkscape:pageopacity="1"
     inkscape:pagecheckerboard="false"
     inkscape:deskcolor="#ffffff"
     showgrid="true"
     inkscape:zoom="32"
     inkscape:cx="9.609375"
     inkscape:cy="15.453125"
     inkscape:window-width="1920"
     inkscape:window-height="1052"
     inkscape:window-x="0"
     inkscape:window-y="0"
     inkscape:window-maximized="1"
     inkscape:current-layer="svg154"
     showguides="true"
     guidecolor="#ff0000"
     guideopacity="1"
     inkscape:lockguides="true"
     showborder="true"
     borderlayer="true"><inkscape:grid
       type="xygrid"
       id="grid356"
       color="#000000"
       opacity="0.10196078"
       empcolor="#000000"
       empopacity="0.10196078"
       snapvisiblegridlinesonly="true"
       enabled="true"
       visible="true"
       dotted="false" /><sodipodi:guide
       position="4,12"
       orientation="-1,0"
       id="guide764"
       inkscape:locked="true"
       inkscape:label="left-circle"
       inkscape:color="rgb(255,0,0)" /><sodipodi:guide
       position="5,12"
       orientation="-1,0"
       id="guide2218"
       inkscape:locked="true"
       inkscape:label="left-square"
       inkscape:color="rgb(255,0,0)" /><sodipodi:guide
       position="12,20"
       orientation="0,1"
       id="guide2220"
       inkscape:locked="true"
       inkscape:label="top-circle"
       inkscape:color="rgb(255,0,0)" /><sodipodi:guide
       position="12,5"
       orientation="0,1"
       id="guide2222"
       inkscape:locked="true"
       inkscape:label="bottom-square"
       inkscape:color="rgb(255,0,0)" /><sodipodi:guide
       position="12,4"
       orientation="0,1"
       id="guide2224"
       inkscape:locked="true"
       inkscape:label="bottom-circle"
       inkscape:color="rgb(255,0,0)" /><sodipodi:guide
       position="19,12"
       orientation="-1,0"
       id="guide2226"
       inkscape:locked="true"
       inkscape:label="right-square"
       inkscape:color="rgb(255,0,0)" /><sodipodi:guide
       position="20,12"
       orientation="-1,0"
       id="guide2228"
       inkscape:locked="true"
       inkscape:label="right-circle"
       inkscape:color="rgb(255,0,0)" /><sodipodi:guide
       position="12,19"
       orientation="0,1"
       id="guide2230"
       inkscape:locked="true"
       inkscape:label="top-square"
       inkscape:color="rgb(255,0,0)" /><sodipodi:guide
       position="12,12"
       orientation="1,0"
       id="guide765"
       inkscape:locked="true" /><sodipodi:guide
       position="12,12"
       orientation="0,-1"
       id="guide767"
       inkscape:locked="true" /><sodipodi:guide
       position="12,12"
       orientation="0.70710678,0.70710678"
       id="guide2266"
       inkscape:locked="true"
       inkscape:label=""
       inkscape:color="rgb(255,0,0)" /><sodipodi:guide
       position="12,12"
       orientation="-0.70710678,0.70710678"
       id="guide2994"
       inkscape:locked="true"
       inkscape:label=""
       inkscape:color="rgb(255,0,0)" /><sodipodi:guide
       position="3,12"
       orientation="-1,0"
       id="guide131543"
       inkscape:locked="true"
       inkscape:label="left-horizontal"
       inkscape:color="rgb(255,0,0)" /><sodipodi:guide
       position="12,21"
       orientation="0,1"
       id="guide131545"
       inkscape:locked="true"
       inkscape:label="top-vertical"
       inkscape:color="rgb(255,0,0)" /><sodipodi:guide
       position="21,12"
       orientation="-1,0"
       id="guide131547"
       inkscape:locked="true"
       inkscape:label="right-horizontal"
       inkscape:color="rgb(255,0,0)" /><sodipodi:guide
       position="12,3"
       orientation="0,1"
       id="guide131549"
       inkscape:locked="true"
       inkscape:label="bottom-vertical"
       inkscape:color="rgb(255,0,0)" /></sodipodi:namedview><defs
     id="defs152"><linearGradient
       inkscape:collect="always"
       id="linearGradient1692"><stop
         style="stop-color:#005500;stop-opacity:1"
         offset="0"
         id="stop1688" /><stop
         style="stop-color:#80ff80;stop-opacity:1"
         offset="1"
         id="stop1690" /></linearGradient><linearGradient
       inkscape:collect="always"
       xlink:href="#linearGradient1692"
       id="linearGradient1694"
       x1="48.819595"
       y1="109.56651"
       x2="49.000389"
       y2="-8.8538036"
       gradientUnits="userSpaceOnUse"
       gradientTransform="matrix(0.24444444,0,0,0.24444444,-0.22222222,-0.22222222)" /></defs><path
     d="M 12,0.99999998 C 2,0.99999998 0.99999998,6 0.99999998,12 0.99999998,20 4.0000001,23 12,23 20,23 23,20 23,12 23,6 22,0.99999998 12,0.99999998 Z"
     sketch:type="MSShapeGroup"
     id="path6"
     style="font-variation-settings:normal;display:inline;opacity:1;vector-effect:none;fill:url(#linearGradient1694);fill-opacity:1;stroke-width:1.11627;stroke-linecap:butt;stroke-linejoin:miter;stroke-miterlimit:4;stroke-dasharray:none;stroke-dashoffset:0;stroke-opacity:1;-inkscape-stroke:none;stop-color:#000000;stop-opacity:1"
     sodipodi:nodetypes="sssss"
     inkscape:label="Shape"
     sodipodi:insensitive="true" /><path
     id="path4092"
     style="fill:#0d0d0d;stroke:none;stroke-width:0.0554187"
     d="M 18.181641,4.9589844 16.296875,5.5605469 14.912109,5.1445312 12.972656,5.0703125 12.363281,5.3105469 10.533203,5.734375 9.203125,5.2558594 7.4863281,5.125 C 7.6703497,5.9991133 8.4805255,6.8801555 8.4003906,7.8417969 8.3342468,8.6354988 7.6660273,9.4591262 7.734375,10.279297 c 0.068038,0.816477 0.568806,1.601085 0.6386719,2.439453 0.038591,0.463022 -0.2929834,1.336518 -0.4628907,1.773438 -0.1240868,0.319095 -0.5178876,0.592111 -0.7558593,0.830078 -0.6016489,0.60162 -1.2824332,1.174636 -1.7558594,1.884765 -0.2158883,0.323811 -0.5876745,0.93844 -0.3320313,1.330078 0.9227801,1.413613 2.5568501,-0.525573 3.25,-1.21875 l 0.609375,-0.609375 c 0.1968084,-0.196787 0.5526569,-0.715084 0.8320313,-0.757812 0.3706445,-0.05658 0.7834465,0.234825 1.1640625,0.203125 0.677598,-0.05648 1.45746,-0.646563 2.105469,-0.601563 0.821521,0.05702 1.608734,0.712891 2.439453,0.712891 0.703203,0 1.988206,-0.323086 2.603515,-0.666016 0.181496,-0.10114 0.14824,-0.42921 0.175782,-0.609375 0.08025,-0.525475 0.254611,-1.039933 0.396484,-1.550781 0.05653,-0.203442 0.19121,-0.396747 0.203125,-0.611328 0.01646,-0.296656 -0.166016,-0.591671 -0.166015,-0.886719 0,-0.54404 0.27995,-1.16106 0.333984,-1.716797 0.05342,-0.5494771 -0.192896,-1.0720363 -0.222656,-1.6074215 -0.0154,-0.277674 0.228075,-0.5026157 0.21289,-0.7753906 C 18.952426,6.915036 18.498298,5.8185171 18.181641,4.9589844 Z m -0.111329,0.3320312 c 0.284242,0.9000327 0.683411,1.9446909 0.609376,2.8828125 H 18.625 C 18.315267,7.5543449 17.95704,7.0078293 17.460938,6.5117188 17.198419,6.2492018 16.76364,6.0356846 16.574219,5.734375 Z M 7.8730469,5.3476562 10.423828,5.9941406 11.253906,5.8457031 v 0.056641 c -1.24013,0.8485047 -2.1241776,2.1977478 -2.2714841,3.7128906 -0.071726,0.7377273 0.063355,1.4654293 0.2949219,2.1601563 0.086985,0.260962 0.4678817,0.731318 0.4160156,0.998047 -0.034667,0.178277 -0.2485937,0.264533 -0.359375,0.388671 -0.3145815,0.352573 -0.6629456,0.815766 -1.0722656,1.052735 L 8.59375,12.607422 7.9941406,10.167969 8.4277344,8.5058594 8.6582031,7.7851562 Z M 13.873047,6.15625 c 0.407876,-0.00522 0.826556,0.064782 1.205078,0.1699219 3.30094,0.9169187 3.765932,5.5070401 0.832031,7.1777341 -0.458307,0.260967 -1.026151,0.437074 -1.552734,0.488282 C 10.399739,14.376954 8.5108793,9.0051195 11.808594,6.8066406 12.301759,6.4778495 12.883604,6.2772001 13.470703,6.1875 13.602544,6.167358 13.737087,6.15799 13.873047,6.15625 Z M 11.253906,8.0625 11.087891,8.2285156 Z m 4.490235,2.992188 -0.167969,0.167968 z m 2.769531,1.220703 c 0.05929,0.75114 -0.184929,1.312037 -0.369141,2.048828 -0.06673,0.266946 -0.04746,0.820574 -0.21289,1.035156 -0.10452,0.135554 -0.478221,0.188683 -0.636719,0.230469 -0.589986,0.155727 -1.323148,0.458345 -1.939453,0.398437 -0.809605,-0.07869 -1.574094,-0.659665 -2.382813,-0.693359 -0.248221,-0.01037 -0.589465,0.227212 -0.832031,0.304687 -0.723319,0.231095 -1.487714,0.418288 -2.2167969,0.111329 0.2300369,-0.397351 0.6658609,-0.685389 0.9882809,-1.007813 0.114883,-0.114828 0.217386,-0.341751 0.398438,-0.359375 0.303749,-0.02955 0.995683,0.452551 1.330078,0.554688 0.767875,0.234636 1.647513,0.271664 2.4375,0.07422 1.079771,-0.269939 2.027716,-0.864406 2.771484,-1.701172 0.258584,-0.290889 0.391902,-0.746604 0.664063,-0.996093 z" /></svg>

<svg xmlns="http://www.w3.org/2000/svg" xmlns:xlink="http://www.w3.org/1999/xlink" xml:space="preserve" width="24" height="24" fill="none"><defs><linearGradient id="a"><stop offset="0" style="stop-color:#050;stop-opacity:1"/><stop offset="1" style="stop-color:#80ff80;stop-opacity:1"/></linearGradient><linearGradient xlink:href="#a" id="b" x1="48.82" x2="49" y1="109.567" y2="-8.854" gradientTransform="matrix(.24444 0 0 .24444 -.222 -.222)" gradientUnits="userSpaceOnUse"/></defs><path d="M12 1C2 1 1 6 1 12c0 8 3 11 11 11s11-3 11-11c0-6-1-11-11-11Z" style="font-variation-settings:normal;display:inline;opacity:1;vector-effect:none;fill:url(#b);fill-opacity:1;stroke-width:1.11627;stroke-linecap:butt;stroke-linejoin:miter;stroke-miterlimit:4;stroke-dasharray:none;stroke-dashoffset:0;stroke-opacity:1;-inkscape-stroke:none;stop-color:#000;stop-opacity:1"/><path d="m18.182 4.959-1.885.602-1.385-.416-1.94-.075-.609.24-1.83.424-1.33-.478-1.717-.131c.184.874.995 1.755.914 2.717-.066.793-.734 1.617-.666 2.437.068.817.57 1.601.639 2.44.039.463-.293 1.336-.463 1.773-.124.32-.518.592-.756.83-.601.602-1.282 1.175-1.756 1.885-.215.324-.587.938-.332 1.33.923 1.414 2.557-.525 3.25-1.219l.61-.609c.197-.197.552-.715.832-.758.37-.056.783.235 1.164.203.677-.056 1.457-.646 2.105-.601.822.057 1.61.713 2.44.713.703 0 1.988-.323 2.603-.666.182-.102.149-.43.176-.61.08-.525.255-1.04.397-1.55.056-.204.19-.397.203-.612.016-.297-.166-.592-.166-.887 0-.544.28-1.16.334-1.716.053-.55-.193-1.072-.223-1.608-.015-.277.228-.502.213-.775-.052-.927-.506-2.023-.822-2.883Zm-.112.332c.285.9.684 1.945.61 2.883h-.055c-.31-.62-.668-1.166-1.164-1.662-.263-.263-.697-.476-.887-.778Zm-10.197.057 2.55.646.83-.148v.056c-1.24.849-2.123 2.198-2.27 3.713-.072.738.063 1.466.294 2.16.087.261.468.732.416.998-.034.179-.248.265-.359.39-.315.352-.663.815-1.072 1.052l.332-1.608-.6-2.439.434-1.662.23-.72Zm6 .808c.408-.005.827.065 1.205.17 3.301.917 3.766 5.507.832 7.178a4.045 4.045 0 0 1-1.553.488c-3.957.385-5.846-4.987-2.548-7.185a4.131 4.131 0 0 1 1.662-.62c.132-.02.266-.029.402-.03Zm-2.62 1.907-.165.166Zm4.491 2.992-.168.168zm2.77 1.22c.059.752-.185 1.312-.37 2.05-.066.266-.047.82-.212 1.034-.105.136-.479.19-.637.23-.59.157-1.323.46-1.94.4-.81-.08-1.574-.66-2.382-.694-.249-.01-.59.227-.832.305-.724.23-1.488.418-2.217.11.23-.396.666-.684.988-1.007.115-.115.217-.342.399-.36.303-.029.995.453 1.33.555a4.664 4.664 0 0 0 2.437.075 5.474 5.474 0 0 0 2.772-1.702c.258-.29.392-.746.664-.996z" style="fill:#0d0d0d;stroke:none;stroke-width:.0554187"/></svg>
